packages/dnb-eufemia/assets/icons/cloud_medium.svg

<svg width="24" height="24" viewBox="0 0 24 24" fill="none" xmlns="http://www.w3.org/2000/svg">
<path d="M18.9377 12.012L18.1957 11.9026C18.1624 12.1283 18.2337 12.3568 18.3893 12.5236C18.5449 12.6904 18.768 12.7774 18.9954 12.7598L18.9377 12.012ZM8.12631 11.3204C8.48545 11.5268 8.94389 11.4029 9.15027 11.0438C9.35666 10.6847 9.23283 10.2262 8.87369 10.0198L8.12631 11.3204ZM6 19.25C3.65279 19.25 1.75 17.3472 1.75 15H0.25C0.25 18.1756 2.82436 20.75 6 20.75V19.25ZM22.5 16C22.5 17.7949 21.0449 19.25 19.25 19.25V20.75C21.8734 20.75 24 18.6234 24 16H22.5ZM6 20.75H19.25V19.25H6V20.75ZM1.75 15C1.75 12.9248 3.23807 11.1956 5.2056 10.824L4.92723 9.35003C2.26427 9.85297 0.25 12.1905 0.25 15H1.75ZM5.81155 10.1723C6.1951 6.8223 9.18356 4.75 12 4.75V3.25C8.54448 3.25 4.8049 5.7777 4.32128 10.0017L5.81155 10.1723ZM12 4.75C16.1428 4.75 18.6996 8.48681 18.1957 11.9026L19.6797 12.1215C20.3004 7.91319 17.1692 3.25 12 3.25V4.75ZM18.9954 12.7598C20.8494 12.6166 22.5 14.1369 22.5 16H24C24 13.259 21.6013 11.0541 18.8799 11.2642L18.9954 12.7598ZM5.2056 10.824C6.20057 10.6361 7.24988 10.8167 8.12631 11.3204L8.87369 10.0198C7.68971 9.33946 6.27694 9.09512 4.92723 9.35003L5.2056 10.824Z" fill="black"/>
</svg>

<svg width="24" height="24" viewBox="0 0 24 24" fill="none" xmlns="http://www.w3.org/2000/svg"><path d="m18.938 12.012-.742-.11a.75.75 0 0 0 .8.858l-.058-.748ZM8.126 11.32a.75.75 0 0 0 .748-1.3l-.748 1.3ZM6 19.25A4.25 4.25 0 0 1 1.75 15H.25A5.75 5.75 0 0 0 6 20.75v-1.5ZM22.5 16a3.25 3.25 0 0 1-3.25 3.25v1.5A4.75 4.75 0 0 0 24 16h-1.5ZM6 20.75h13.25v-1.5H6v1.5ZM1.75 15a4.252 4.252 0 0 1 3.456-4.176L4.927 9.35A5.752 5.752 0 0 0 .25 15h1.5Zm4.062-4.828C6.195 6.822 9.184 4.75 12 4.75v-1.5c-3.456 0-7.195 2.528-7.679 6.752l1.49.17ZM12 4.75c4.143 0 6.7 3.737 6.196 7.153l1.484.218C20.3 7.913 17.17 3.25 12 3.25v1.5Zm6.995 8.01C20.85 12.617 22.5 14.137 22.5 16H24c0-2.741-2.399-4.946-5.12-4.736l.115 1.496Zm-13.79-1.936a4.301 4.301 0 0 1 2.921.496l.748-1.3a5.801 5.801 0 0 0-3.947-.67l.279 1.474Z" fill="#000"/></svg>
